images/icons/flickr.svg

<svg fill="none" height="24" viewBox="0 0 24 24" width="24" xmlns="http://www.w3.org/2000/svg" xmlns:xlink="http://www.w3.org/1999/xlink"><linearGradient id="a" gradientUnits="userSpaceOnUse" x1="2.04632" x2="4.98965" y1="-3.35885" y2="5.44351"><stop offset="0" stop-color="#fff"/><stop offset="1" stop-color="#fff" stop-opacity="0"/></linearGradient><clipPath id="b"><path d="m0 0h24v24h-24z"/></clipPath><g clip-path="url(#b)"><path d="m3.62415 0h16.75165c2.0016 0 3.6242 1.62259 3.6242 3.62415v16.74965c0 2.0016-1.6226 3.6242-3.6242 3.6242h-16.75165c-2.00156 0-3.62415-1.6226-3.62415-3.6242v-16.74965c0-2.00156 1.62259-3.62415 3.62415-3.62415z" fill="#ececeb"/><path clip-rule="evenodd" d="m16.5099 0h-12.5099c-1.5 0-4 .760029-4 3.93382v11.93298c.0957591 2.2674.463675.8341 1.16524-1.6779.81445-2.9187 3.46648-5.47005 6.69709-7.38181 2.46557-1.45986 5.22547-2.39118 10.24927-2.48058 2.8496-.0501 2.5976-3.60346-1.6017-4.32651z" fill="url(#a)" fill-rule="evenodd"/><path d="m10.7444 11.6482c0 2.2762-1.69819 4.1214-3.79315 4.1214-2.09486 0-3.79317-1.8453-3.79317-4.1214 0-2.27624 1.69821-4.12141 3.79317-4.12141 2.09485 0 3.79315 1.84527 3.79315 4.12141z" fill="#0059d4"/><path d="m20.4461 11.5941c0 2.246-1.7473 4.0666-3.9026 4.0666s-3.9025-1.8207-3.9025-4.0666c0-2.24604 1.7472-4.0667 3.9025-4.0667s3.9026 1.82076 3.9026 4.0667z" fill="#da1593"/></g></svg>

<svg width="24" height="24" viewBox="0 0 24 24" fill="none" xmlns="http://www.w3.org/2000/svg">
<g clip-path="url(#clip0_1432_8620)">
<path d="M3.62415 0H20.3758C22.3774 0 24 1.62259 24 3.62415V20.3738C24 22.3754 22.3774 23.998 20.3758 23.998H3.62415C1.62259 23.998 0 22.3754 0 20.3738V3.62415C0 1.62259 1.62259 0 3.62415 0Z" fill="#ECECEB"/>
<path fill-rule="evenodd" clip-rule="evenodd" d="M16.5099 0H4C2.5 0 0 0.760029 0 3.93382V15.8668C0.0957591 18.1342 0.463675 16.7009 1.16524 14.1889C1.97969 11.2702 4.63172 8.71885 7.86233 6.80709C10.3279 5.34723 13.0878 4.41591 18.1116 4.32651C20.9612 4.27641 20.7092 0.72305 16.5099 0Z" fill="url(#paint0_linear_1432_8620)"/>
<path d="M10.7444 11.6482C10.7444 13.9244 9.04621 15.7696 6.95125 15.7696C4.85639 15.7696 3.15808 13.9243 3.15808 11.6482C3.15808 9.37196 4.85629 7.52679 6.95125 7.52679C9.0461 7.52679 10.7444 9.37206 10.7444 11.6482Z" fill="#0059D4"/>
<path d="M20.4461 11.5941C20.4461 13.8401 18.6988 15.6607 16.5435 15.6607C14.3882 15.6607 12.641 13.84 12.641 11.5941C12.641 9.34806 14.3882 7.5274 16.5435 7.5274C18.6988 7.5274 20.4461 9.34816 20.4461 11.5941Z" fill="#DA1593"/>
</g>
<defs>
<linearGradient id="paint0_linear_1432_8620" x1="2.04632" y1="-3.35885" x2="4.98965" y2="5.44351" gradientUnits="userSpaceOnUse">
<stop stop-color="white"/>
<stop offset="1" stop-color="white" stop-opacity="0"/>
</linearGradient>
<clipPath id="clip0_1432_8620">
<rect width="24" height="24" fill="white"/>
</clipPath>
</defs>
</svg>
